assets/raw/mixThemeCreator.svg

<svg width="288" height="288" viewBox="0 0 288 288" fill="none" xmlns="http://www.w3.org/2000/svg">
    <rect width="288" height="288" fill="%accent_background%" />
    <path fill-rule="evenodd" clip-rule="evenodd" d="M210.094 214.094C242.392 205.48 255.047 177.219 238.298 146.002C255.043 114.785 242.392 86.5236 210.09 77.9098C201.477 45.6113 173.215 32.957 141.998 49.7057C110.781 32.957 82.5201 45.6113 73.9063 77.9098C41.6078 86.5236 28.9535 114.785 45.7022 146.002C28.9535 177.219 41.6078 205.48 73.9063 214.097C82.5201 246.396 110.781 259.05 141.998 242.301C173.215 259.047 201.477 246.396 210.094 214.094ZM142 197.852C170.635 197.852 193.848 174.638 193.848 146.003C193.848 117.369 170.635 94.1553 142 94.1553C113.365 94.1553 90.1518 117.369 90.1518 146.003C90.1518 174.638 113.365 197.852 142 197.852Z" fill="%desaturated_accent%" />
    <path d="M183.478 146C183.478 168.908 164.908 187.479 142 187.479C119.092 187.479 100.521 168.908 100.521 146C100.521 123.092 119.092 104.521 142 104.521C164.908 104.521 183.478 123.092 183.478 146Z" fill="%desaturated_tertiary%" />
</svg>

<svg xmlns="http://www.w3.org/2000/svg" width="288" height="288" fill="none">
    <path fill="%accent_background%" d="M0 0h288v288H0z" />
    <path fill="%desaturated_accent%" fill-rule="evenodd" d="M210.094 214.094c32.298-8.614 44.953-36.875 28.204-68.092 16.745-31.217 4.094-59.478-28.208-68.092-8.613-32.299-36.875-44.953-68.092-28.204C110.781 32.957 82.52 45.61 73.906 77.91c-32.298 8.614-44.953 36.875-28.204 68.092-16.748 31.217-4.094 59.478 28.204 68.095 8.614 32.299 36.875 44.953 68.092 28.204 31.217 16.746 59.479 4.095 68.096-28.207ZM142 197.852c28.635 0 51.848-23.214 51.848-51.849 0-28.634-23.213-51.848-51.848-51.848-28.635 0-51.848 23.214-51.848 51.848 0 28.635 23.213 51.849 51.848 51.849Z" clip-rule="evenodd" />
    <path fill="%desaturated_tertiary%" d="M183.478 146c0 22.908-18.57 41.479-41.478 41.479S100.521 168.908 100.521 146c0-22.908 18.571-41.479 41.479-41.479 22.908 0 41.478 18.571 41.478 41.479Z" />
</svg>
